site-src/images/logo/logo-text-horizontal-all-white.svg

<?xml version="1.0" encoding="UTF-8" standalone="no"?>
<svg
   width="837.32959"
   height="206.85352"
   viewBox="0 0 1395.5493 344.75586"
   version="1.1"
   xml:space="preserve"
   style="clip-rule:evenodd;fill-rule:evenodd;stroke-linecap:round;stroke-linejoin:round;stroke-miterlimit:1.5"
   id="svg12"
   xmlns="http://www.w3.org/2000/svg"
   xmlns:svg="http://www.w3.org/2000/svg"><defs
   id="defs12" />
    
<g
   id="g3"
   transform="translate(-134.96343,-34.392495)"><path
     id="path3055"
     style="clip-rule:evenodd;display:inline;fill:#ffffff;fill-opacity:1;fill-rule:nonzero;stroke:#ffffff;stroke-width:22.2842;stroke-linecap:round;stroke-linejoin:round;stroke-miterlimit:1.5;stroke-dasharray:none;stroke-opacity:0"
     d="m 387.49101,189.72373 c -5.03814,0.25397 -9.97423,1.50069 -14.51111,3.66824 L 117.10701,315.65748 c -10.36454,4.94921 -17.870916,14.29883 -20.418042,25.36073 L 33.560259,615.6436 a 11.143215,11.143215 0 0 0 0,0.007 c -2.262588,9.82378 -0.424698,20.14061 5.111254,28.61089 a 11.143215,11.143215 0 0 1 0.02023,0.0337 c 0.665834,1.0265 1.386606,2.01453 2.151043,2.9737 v 0.007 L 217.91605,867.43693 c 7.15348,8.89006 18.05688,14.10851 29.57514,14.10652 l 284.01176,-0.0674 a 11.143215,11.143215 0 0 1 0.0135,0 c 11.51365,0.008 22.41069,-5.1931 29.5684,-14.07281 l 177.0328,-220.229 a 11.143215,11.143215 0 0 0 0.007,-0.007 c 7.15612,-8.89409 9.82938,-20.51927 7.28253,-31.58459 L 682.18381,340.95752 c -2.54616,-11.06024 -10.05295,-20.41724 -20.41805,-25.36747 L 405.85241,193.39871 a 11.143215,11.143215 0 0 0 0,-0.007 c -5.70682,-2.72662 -12.02617,-3.9887 -18.3614,-3.66824 z m -16.92513,71.87449 37.91633,0.0877 -0.0405,18.96154 -0.13487,58.42878 c 47.69331,4.51994 90.46772,26.03345 122.19135,58.4153 l 46.83068,-37.72079 14.63923,-11.7869 21.98918,31.39577 -14.63923,11.79365 -44.8145,36.08896 c 20.48203,31.11282 32.40724,68.34804 32.40724,108.3478 0,9.2357 -0.63809,18.32208 -1.86784,27.22181 l 27.34993,6.62171 4.03237,-19.15035 a 4.8823911,5.235989 0 0 1 3.31085,-3.84355 4.8823911,5.235989 0 0 1 4.76735,1.15306 l 53.72212,53.26359 a 4.8823911,5.235989 0 0 1 -1.86109,8.84017 l -69.85156,23.34454 a 4.8823911,5.235989 0 0 1 -6.21712,-6.15643 l 4.03236,-19.15034 -28.47602,-6.89143 c -15.1905,43.33335 -45.08115,79.77871 -83.67487,103.35118 l 13.20294,28.30744 17.18137,-8.01077 a 5.0560975,5.0560975 0 0 1 7.17464,5.02359 l -6.64194,75.47529 a 5.0560975,5.0560975 0 0 1 -7.92986,3.6952 L 453.0742,765.28602 a 5.0560975,5.0560975 0 0 1 0.76197,-8.72555 l 17.18136,-8.01078 -12.95345,-27.77474 c -21.36712,7.92626 -44.47299,12.25892 -68.58386,12.25892 -23.2732,0 -45.6109,-4.03337 -66.3519,-11.44301 l -11.86108,25.69788 17.20834,7.94335 a 5.0560975,5.0560975 0 0 1 0.79568,8.7188 l -61.91495,43.66818 a 5.0560975,5.0560975 0 0 1 -7.95009,-3.66824 l -6.93189,-75.44831 a 5.0560975,5.0560975 0 0 1 7.15441,-5.05731 l 17.20834,7.94335 11.98245,-25.94737 C 249.19899,681.89125 218.50149,644.8754 203.06104,600.72116 l -27.63313,6.66891 4.01887,19.15709 a 4.8823911,5.235989 0 0 1 -6.22386,6.14969 L 103.39159,609.3051 a 4.8823911,5.235989 0 0 1 -1.86109,-8.84692 l 53.76257,-53.22312 a 4.8823911,5.235989 0 0 1 4.76061,-1.15307 4.8823911,5.235989 0 0 1 3.31086,3.8503 l 4.01887,19.15035 26.52053,-6.39919 c -1.21639,-8.85269 -1.8476,-17.88871 -1.8476,-27.07346 0,-40.04818 11.94784,-77.3268 32.47467,-108.46243 l -44.89542,-36.21034 -14.62574,-11.79364 22.00267,-31.38229 14.63248,11.79364 46.91834,37.84216 c 31.65355,-32.26805 74.29058,-53.72996 121.82722,-58.30066 l 0.13486,-58.53667 z m 37.65335,114.71326 -0.24275,106.21699 a 56.206677,56.206677 0 0 1 10.6743,5.03708 l 82.83199,-66.70928 c -24.70834,-24.11733 -57.16489,-40.33539 -93.26354,-44.54479 z m -37.91633,0.0539 c -35.88513,4.28477 -68.14712,20.43741 -92.74431,44.41666 l 82.78478,66.76323 a 56.206677,56.206677 0 0 1 9.71004,-4.6797 z m -116.77665,74.16713 c -15.47852,24.66658 -24.43018,53.83314 -24.43018,85.07743 0,6.19641 0.3531,12.31344 1.03844,18.32769 l 103.53324,-24.98311 a 56.206677,56.206677 0 0 1 2.66352,-11.6453 z m 271.96862,0.0944 -82.85896,66.72951 a 56.206677,56.206677 0 0 1 2.65677,11.63856 l 103.5265,25.06403 c 0.69495,-6.05514 1.05192,-12.20907 1.05192,-18.44907 0,-31.20265 -8.93463,-60.33734 -24.37623,-84.98303 z M 377.72703,509.9728 c -0.69267,0.28993 -14.48116,17.69502 -14.6662,18.38838 -0.1778,0.66618 4.71123,22.34247 5.23263,22.92647 0.53687,0.60117 20.23992,10.20537 21.18676,10.20228 0.96609,-0.003 20.68414,-9.60695 21.1935,-10.20228 0.53343,-0.62321 5.35231,-22.34936 5.23262,-22.92647 -0.12413,-0.59913 -14.00518,-18.04651 -14.66619,-18.38838 -0.63386,-0.32811 -22.76267,-0.31401 -23.51312,0 z m -34.88195,57.01274 -103.54673,24.98985 c 12.45469,33.13299 35.56233,61.06589 65.14489,79.61554 h 0.007 l 44.69987,-96.83062 a 56.206677,56.206677 0 0 1 -6.30478,-7.77477 z m 93.2433,0.0337 a 56.206677,56.206677 0 0 1 -4.94942,6.31827 l 45.26629,97.05314 c 28.64608,-18.52225 51.02357,-45.92667 63.22312,-78.30064 z m -38.44229,24.20092 a 56.206677,56.206677 0 0 1 -8.16587,0.59339 56.206677,56.206677 0 0 1 -6.28455,-0.35064 L 338.7318,687.7878 c 15.95171,5.32372 33.01585,8.20632 50.74842,8.20632 18.51824,0 36.31013,-3.14301 52.86574,-8.92783 z"
     transform="matrix(0.48274804,0,0,0.48274804,124.59624,-51.793846)" /><text
     xml:space="preserve"
     style="font-style:normal;font-variant:normal;font-weight:bold;font-stretch:normal;font-size:172.122px;line-height:0.9;font-family:Ubuntu;-inkscape-font-specification:'Ubuntu, Bold';font-variant-ligatures:normal;font-variant-caps:normal;font-variant-numeric:normal;font-variant-east-asian:normal;text-align:center;text-anchor:middle;fill:#ffffff;fill-opacity:1;stroke:#ffffff;stroke-width:0;stroke-linecap:square;stroke-linejoin:bevel;stroke-miterlimit:1.3;stroke-dasharray:none"
     x="558.71234"
     y="256.51407"
     id="text1"><tspan
       x="558.71234"
       y="256.51407"
       id="tspan2"
       style="font-style:normal;font-variant:normal;font-weight:bold;font-stretch:normal;font-size:172.122px;font-family:Ubuntu;-inkscape-font-specification:'Ubuntu, Bold';font-variant-ligatures:normal;font-variant-caps:normal;font-variant-numeric:normal;font-variant-east-asian:normal;text-align:start;text-anchor:start;fill:#ffffff;fill-opacity:1;stroke-width:0">gateway api</tspan></text></g></svg>

<?xml version="1.0" encoding="UTF-8" standalone="no"?>
<svg
   width="900"
   height="250"
   viewBox="0 0 1500 416.66667"
   version="1.1"
   xml:space="preserve"
   style="clip-rule:evenodd;fill-rule:evenodd;stroke-linecap:round;stroke-linejoin:round;stroke-miterlimit:1.5"
   id="svg12"
   sodipodi:docname="logo-text-horizontal-white.svg"
   inkscape:version="1.4.3 (0d15f75042, 2025-12-25)"
   inkscape:export-filename="logo-text-horizontal-all-black.svg"
   inkscape:export-xdpi="96"
   inkscape:export-ydpi="96"
   xmlns:inkscape="http://www.inkscape.org/namespaces/inkscape"
   xmlns:sodipodi="http://sodipodi.sourceforge.net/DTD/sodipodi-0.dtd"
   xmlns="http://www.w3.org/2000/svg"
   xmlns:svg="http://www.w3.org/2000/svg"><sodipodi:namedview
   id="namedview12"
   pagecolor="#56ffff"
   bordercolor="#000000"
   borderopacity="0.25"
   inkscape:showpageshadow="2"
   inkscape:pageopacity="0.0"
   inkscape:pagecheckerboard="0"
   inkscape:deskcolor="#d1d1d1"
   inkscape:zoom="1.2310732"
   inkscape:cx="289.17858"
   inkscape:cy="78.38689"
   inkscape:window-width="1440"
   inkscape:window-height="743"
   inkscape:window-x="0"
   inkscape:window-y="0"
   inkscape:window-maximized="1"
   inkscape:current-layer="g3"
   showguides="true"
   showgrid="false" /><defs
   id="defs12" />
    
<g
   id="g3"
   transform="translate(-80.048691,1.562507)"
   inkscape:label="gateway-api-logo"><path
     id="path3055"
     style="clip-rule:evenodd;fill-rule:nonzero;stroke-linecap:round;stroke-linejoin:round;stroke-miterlimit:1.5;stroke:#ffffff;stroke-width:22.2842;stroke-dasharray:none;stroke-opacity:0;display:inline;fill:#ffffff;fill-opacity:1"
     inkscape:label="icon1"
     d="M 387.49101 189.72373 C 382.45287 189.9777 377.51678 191.22442 372.9799 193.39197 L 117.10701 315.65748 C 106.74247 320.60669 99.236094 329.95631 96.688968 341.01821 L 33.560259 615.6436 A 11.143215 11.143215 0 0 0 33.560259 615.65034 C 31.297671 625.47412 33.135561 635.79095 38.671513 644.26123 A 11.143215 11.143215 0 0 1 38.691742 644.29494 C 39.357576 645.32144 40.078348 646.30947 40.842785 647.26864 L 40.842785 647.27538 L 217.91605 867.43693 C 225.06953 876.32699 235.97293 881.54544 247.49119 881.54345 L 531.50295 881.47602 A 11.143215 11.143215 0 0 1 531.51644 881.47602 C 543.03009 881.48376 553.92713 876.28292 561.08484 867.40321 L 738.11765 647.17424 A 11.143215 11.143215 0 0 0 738.12439 647.1675 C 745.28051 638.27341 747.95377 626.64823 745.40692 615.58291 L 682.18381 340.95752 C 679.63765 329.89728 672.13086 320.54028 661.76576 315.59005 L 405.85241 193.39871 A 11.143215 11.143215 0 0 0 405.85241 193.39197 C 400.14559 190.66535 393.82624 189.40327 387.49101 189.72373 z M 370.56588 261.59822 L 408.48221 261.68588 L 408.44176 280.64742 L 408.30689 339.0762 C 456.0002 343.59614 498.77461 365.10965 530.49824 397.4915 L 577.32892 359.77071 L 591.96815 347.98381 L 613.95733 379.37958 L 599.3181 391.17323 L 554.5036 427.26219 C 574.98563 458.37501 586.91084 495.61023 586.91084 535.60999 C 586.91084 544.84569 586.27275 553.93207 585.043 562.8318 L 612.39293 569.45351 L 616.4253 550.30316 A 4.8823911 5.235989 0 0 1 619.73615 546.45961 A 4.8823911 5.235989 0 0 1 624.5035 547.61267 L 678.22562 600.87626 A 4.8823911 5.235989 0 0 1 676.36453 609.71643 L 606.51297 633.06097 A 4.8823911 5.235989 0 0 1 600.29585 626.90454 L 604.32821 607.7542 L 575.85219 600.86277 C 560.66169 644.19612 530.77104 680.64148 492.17732 704.21395 L 505.38026 732.52139 L 522.56163 724.51062 A 5.0560975 5.0560975 0 0 1 529.73627 729.53421 L 523.09433 805.0095 A 5.0560975 5.0560975 0 0 1 515.16447 808.7047 L 453.0742 765.28602 A 5.0560975 5.0560975 0 0 1 453.83617 756.56047 L 471.01753 748.54969 L 458.06408 720.77495 C 436.69696 728.70121 413.59109 733.03387 389.48022 733.03387 C 366.20702 733.03387 343.86932 729.0005 323.12832 721.59086 L 311.26724 747.28874 L 328.47558 755.23209 A 5.0560975 5.0560975 0 0 1 329.27126 763.95089 L 267.35631 807.61907 A 5.0560975 5.0560975 0 0 1 259.40622 803.95083 L 252.47433 728.50252 A 5.0560975 5.0560975 0 0 1 259.62874 723.44521 L 276.83708 731.38856 L 288.81953 705.44119 C 249.19899 681.89125 218.50149 644.8754 203.06104 600.72116 L 175.42791 607.39007 L 179.44678 626.54716 A 4.8823911 5.235989 0 0 1 173.22292 632.69685 L 103.39159 609.3051 A 4.8823911 5.235989 0 0 1 101.5305 600.45818 L 155.29307 547.23506 A 4.8823911 5.235989 0 0 1 160.05368 546.08199 A 4.8823911 5.235989 0 0 1 163.36454 549.93229 L 167.38341 569.08264 L 193.90394 562.68345 C 192.68755 553.83076 192.05634 544.79474 192.05634 535.60999 C 192.05634 495.56181 204.00418 458.28319 224.53101 427.14756 L 179.63559 390.93722 L 165.00985 379.14358 L 187.01252 347.76129 L 201.645 359.55493 L 248.56334 397.39709 C 280.21689 365.12904 322.85392 343.66713 370.39056 339.09643 L 370.52542 280.55976 L 370.56588 261.59822 z M 408.21923 376.31148 L 407.97648 482.52847 A 56.206677 56.206677 0 0 1 418.65078 487.56555 L 501.48277 420.85627 C 476.77443 396.73894 444.31788 380.52088 408.21923 376.31148 z M 370.3029 376.36543 C 334.41777 380.6502 302.15578 396.80284 277.55859 420.78209 L 360.34337 487.54532 A 56.206677 56.206677 0 0 1 370.05341 482.86562 L 370.3029 376.36543 z M 253.52625 450.53256 C 238.04773 475.19914 229.09607 504.3657 229.09607 535.60999 C 229.09607 541.8064 229.44917 547.92343 230.13451 553.93768 L 333.66775 528.95457 A 56.206677 56.206677 0 0 1 336.33127 517.30927 L 253.52625 450.53256 z M 525.49487 450.62696 L 442.63591 517.35647 A 56.206677 56.206677 0 0 1 445.29268 528.99503 L 548.81918 554.05906 C 549.51413 548.00392 549.8711 541.84999 549.8711 535.60999 C 549.8711 504.40734 540.93647 475.27265 525.49487 450.62696 z M 377.72703 509.9728 C 377.03436 510.26273 363.24587 527.66782 363.06083 528.36118 C 362.88303 529.02736 367.77206 550.70365 368.29346 551.28765 C 368.83033 551.88882 388.53338 561.49302 389.48022 561.48993 C 390.44631 561.48694 410.16436 551.88298 410.67372 551.28765 C 411.20715 550.66444 416.02603 528.93829 415.90634 528.36118 C 415.78221 527.76205 401.90116 510.31467 401.24015 509.9728 C 400.60629 509.64469 378.47748 509.65879 377.72703 509.9728 z M 342.84508 566.98554 L 239.29835 591.97539 C 251.75304 625.10838 274.86068 653.04128 304.44324 671.59093 L 304.44999 671.59093 L 349.14986 574.76031 A 56.206677 56.206677 0 0 1 342.84508 566.98554 z M 436.08838 567.01925 A 56.206677 56.206677 0 0 1 431.13896 573.33752 L 476.40525 670.39066 C 505.05133 651.86841 527.42882 624.46399 539.62837 592.09002 L 436.08838 567.01925 z M 397.64609 591.22017 A 56.206677 56.206677 0 0 1 389.48022 591.81356 A 56.206677 56.206677 0 0 1 383.19567 591.46292 L 338.7318 687.78781 C 354.68351 693.11153 371.74765 695.99413 389.48022 695.99413 C 407.99846 695.99413 425.79035 692.85112 442.34596 687.0663 L 397.64609 591.22017 z "
     transform="matrix(0.48274804,0,0,0.48274804,124.59624,-51.793846)" /><text
     xml:space="preserve"
     style="font-style:normal;font-variant:normal;font-weight:bold;font-stretch:normal;font-size:172.122px;line-height:0.9;font-family:Ubuntu;-inkscape-font-specification:'Ubuntu, Bold';font-variant-ligatures:normal;font-variant-caps:normal;font-variant-numeric:normal;font-variant-east-asian:normal;text-align:center;text-anchor:middle;fill:#ffffff;stroke:#ffffff;stroke-width:0;stroke-linecap:square;stroke-linejoin:bevel;stroke-miterlimit:1.3;stroke-dasharray:none;fill-opacity:1"
     x="558.71234"
     y="256.51407"
     id="text1"><tspan
       sodipodi:role="line"
       x="558.71234"
       y="256.51407"
       id="tspan2"
       style="font-style:normal;font-variant:normal;font-weight:bold;font-stretch:normal;font-size:172.122px;font-family:Ubuntu;-inkscape-font-specification:'Ubuntu, Bold';font-variant-ligatures:normal;font-variant-caps:normal;font-variant-numeric:normal;font-variant-east-asian:normal;text-align:start;text-anchor:start;stroke-width:0;fill:#ffffff;fill-opacity:1">gateway api</tspan></text></g></svg>
